images/3232745.svg

<?xml version="1.0" encoding="UTF-8"?>
<svg xmlns="http://www.w3.org/2000/svg" xmlns:xlink="http://www.w3.org/1999/xlink" width="300pt" height="300pt" viewBox="0 0 300 300" version="1.1">
<defs>
<g>
<symbol overflow="visible" id="glyph0-0">
<path style="stroke:none;" d="M 0.546875 1.9375 L 0.546875 -7.75 L 6.046875 -7.75 L 6.046875 1.9375 Z M 1.171875 1.328125 L 5.4375 1.328125 L 5.4375 -7.140625 L 1.171875 -7.140625 Z M 1.171875 1.328125 "/>
</symbol>
<symbol overflow="visible" id="glyph0-1">
<path style="stroke:none;" d="M 1.078125 -8.015625 L 2.546875 -8.015625 L 6.09375 -1.3125 L 6.09375 -8.015625 L 7.15625 -8.015625 L 7.15625 0 L 5.6875 0 L 2.125 -6.703125 L 2.125 0 L 1.078125 0 Z M 1.078125 -8.015625 "/>
</symbol>
<symbol overflow="visible" id="glyph0-2">
<path style="stroke:none;" d="M 4.328125 -7.28125 C 3.546875 -7.28125 2.921875 -6.984375 2.453125 -6.390625 C 1.992188 -5.804688 1.765625 -5.007812 1.765625 -4 C 1.765625 -2.988281 1.992188 -2.1875 2.453125 -1.59375 C 2.921875 -1.007812 3.546875 -0.71875 4.328125 -0.71875 C 5.117188 -0.71875 5.742188 -1.007812 6.203125 -1.59375 C 6.660156 -2.1875 6.890625 -2.988281 6.890625 -4 C 6.890625 -5.007812 6.660156 -5.804688 6.203125 -6.390625 C 5.742188 -6.984375 5.117188 -7.28125 4.328125 -7.28125 Z M 4.328125 -8.171875 C 5.453125 -8.171875 6.351562 -7.789062 7.03125 -7.03125 C 7.707031 -6.28125 8.046875 -5.269531 8.046875 -4 C 8.046875 -2.738281 7.707031 -1.726562 7.03125 -0.96875 C 6.351562 -0.21875 5.453125 0.15625 4.328125 0.15625 C 3.203125 0.15625 2.300781 -0.21875 1.625 -0.96875 C 0.957031 -1.71875 0.625 -2.726562 0.625 -4 C 0.625 -5.269531 0.957031 -6.28125 1.625 -7.03125 C 2.300781 -7.789062 3.203125 -8.171875 4.328125 -8.171875 Z M 4.328125 -8.171875 "/>
</symbol>
<symbol overflow="visible" id="glyph0-3">
<path style="stroke:none;" d="M 1.078125 -8.015625 L 5.6875 -8.015625 L 5.6875 -7.109375 L 2.171875 -7.109375 L 2.171875 -4.75 L 5.34375 -4.75 L 5.34375 -3.828125 L 2.171875 -3.828125 L 2.171875 0 L 1.078125 0 Z M 1.078125 -8.015625 "/>
</symbol>
</g>
</defs>
<g id="surface39877">
<rect x="0" y="0" width="300" height="300" style="fill:rgb(100%,100%,100%);fill-opacity:1;stroke:none;"/>
<path style="fill:none;stroke-width:1.2;stroke-linecap:butt;stroke-linejoin:miter;stroke:rgb(0%,0%,0%);stroke-opacity:1;stroke-miterlimit:10;" d="M 153.167969 217.132812 L 127.511719 217.449219 "/>
<path style="fill:none;stroke-width:1.2;stroke-linecap:butt;stroke-linejoin:miter;stroke:rgb(0%,0%,0%);stroke-opacity:1;stroke-miterlimit:10;" d="M 165.722656 194.753906 L 153.167969 217.132812 "/>
<path style="fill:none;stroke-width:1;stroke-linecap:butt;stroke-linejoin:miter;stroke:rgb(0%,0%,0%);stroke-opacity:1;stroke-miterlimit:10;" d="M 114.410156 195.390625 L 114.410156 195.390625 M 115.46875 198.195312 L 116.367188 197.664062 M 116.527344 201 L 118.320312 199.9375 M 117.589844 203.808594 L 120.277344 202.210938 M 118.648438 206.613281 L 122.234375 204.484375 M 119.710938 209.421875 L 124.191406 206.757812 M 120.769531 212.226562 L 126.148438 209.03125 M 121.832031 215.035156 L 128.105469 211.304688 M 122.890625 217.839844 L 130.0625 213.578125 M 123.617188 219.761719 L 131.402344 215.136719 "/>
<path style="fill:none;stroke-width:1.2;stroke-linecap:butt;stroke-linejoin:miter;stroke:rgb(0%,0%,0%);stroke-opacity:1;stroke-miterlimit:10;" d="M 114.410156 195.390625 L 99.585938 216.332031 "/>
<path style="fill:none;stroke-width:1.2;stroke-linecap:butt;stroke-linejoin:miter;stroke:rgb(0%,0%,0%);stroke-opacity:1;stroke-miterlimit:10;" d="M 114.410156 195.390625 L 126.960938 173.011719 "/>
<path style="fill:none;stroke-width:1.2;stroke-linecap:butt;stroke-linejoin:miter;stroke:rgb(0%,0%,0%);stroke-opacity:1;stroke-miterlimit:10;" d="M 99.070312 174.820312 L 114.410156 195.390625 "/>
<path style="fill:none;stroke-width:1.2;stroke-linecap:butt;stroke-linejoin:miter;stroke:rgb(0%,0%,0%);stroke-opacity:1;stroke-miterlimit:10;" d="M 99.585938 216.332031 L 75.085938 208.707031 "/>
<path style="fill:none;stroke-width:1.2;stroke-linecap:butt;stroke-linejoin:miter;stroke:rgb(0%,0%,0%);stroke-opacity:1;stroke-miterlimit:10;" d="M 75.085938 208.707031 L 74.925781 195.878906 "/>
<path style="fill:none;stroke-width:1.2;stroke-linecap:butt;stroke-linejoin:miter;stroke:rgb(0%,0%,100%);stroke-opacity:1;stroke-miterlimit:10;" d="M 74.925781 195.878906 L 74.769531 183.050781 "/>
<path style="fill:none;stroke-width:1.2;stroke-linecap:butt;stroke-linejoin:miter;stroke:rgb(0%,0%,100%);stroke-opacity:1;stroke-miterlimit:10;" d="M 74.769531 183.050781 L 86.921875 178.933594 "/>
<path style="fill:none;stroke-width:1.2;stroke-linecap:butt;stroke-linejoin:miter;stroke:rgb(0%,0%,0%);stroke-opacity:1;stroke-miterlimit:10;" d="M 86.921875 178.933594 L 99.070312 174.820312 "/>
<path style="fill:none;stroke-width:1.2;stroke-linecap:butt;stroke-linejoin:miter;stroke:rgb(0%,0%,100%);stroke-opacity:1;stroke-miterlimit:10;" d="M 74.769531 183.050781 L 64.296875 175.636719 "/>
<path style="fill:none;stroke-width:1.2;stroke-linecap:butt;stroke-linejoin:miter;stroke:rgb(0%,0%,0%);stroke-opacity:1;stroke-miterlimit:10;" d="M 64.296875 175.636719 L 53.828125 168.226562 "/>
<path style=" stroke:none;fill-rule:nonzero;fill:rgb(100%,100%,100%);fill-opacity:1;" d="M 70.769531 176.550781 L 78.769531 176.550781 L 78.769531 189.550781 L 70.769531 189.550781 Z M 70.769531 176.550781 "/>
<g style="fill:rgb(0%,0%,100%);fill-opacity:1;">
  <use xlink:href="#glyph0-1" x="70.769531" y="186.452148"/>
</g>
<path style="fill:none;stroke-width:1.2;stroke-linecap:butt;stroke-linejoin:miter;stroke:rgb(0%,0%,0%);stroke-opacity:1;stroke-miterlimit:10;" d="M 53.828125 168.226562 L 56.191406 142.675781 "/>
<path style="fill:none;stroke-width:1.2;stroke-linecap:butt;stroke-linejoin:miter;stroke:rgb(0%,0%,0%);stroke-opacity:1;stroke-miterlimit:10;" d="M 56.191406 142.675781 L 79.5 131.953125 "/>
<path style="fill:none;stroke-width:1.2;stroke-linecap:butt;stroke-linejoin:miter;stroke:rgb(0%,0%,0%);stroke-opacity:1;stroke-miterlimit:10;" d="M 56 136.121094 L 74.648438 127.539062 "/>
<path style="fill:none;stroke-width:1.2;stroke-linecap:butt;stroke-linejoin:miter;stroke:rgb(0%,0%,0%);stroke-opacity:1;stroke-miterlimit:10;" d="M 35.25 127.851562 L 56.191406 142.675781 "/>
<path style="fill:none;stroke-width:1.2;stroke-linecap:butt;stroke-linejoin:miter;stroke:rgb(0%,0%,0%);stroke-opacity:1;stroke-miterlimit:10;" d="M 79.5 131.953125 L 81.867188 106.402344 "/>
<path style="fill:none;stroke-width:1.2;stroke-linecap:butt;stroke-linejoin:miter;stroke:rgb(0%,0%,0%);stroke-opacity:1;stroke-miterlimit:10;" d="M 81.867188 106.402344 L 60.925781 91.578125 "/>
<path style="fill:none;stroke-width:1.2;stroke-linecap:butt;stroke-linejoin:miter;stroke:rgb(0%,0%,0%);stroke-opacity:1;stroke-miterlimit:10;" d="M 76.285156 109.847656 L 59.53125 97.988281 "/>
<path style="fill:none;stroke-width:1.2;stroke-linecap:butt;stroke-linejoin:miter;stroke:rgb(0%,0%,0%);stroke-opacity:1;stroke-miterlimit:10;" d="M 60.925781 91.578125 L 37.617188 102.304688 "/>
<path style="fill:none;stroke-width:1.2;stroke-linecap:butt;stroke-linejoin:miter;stroke:rgb(0%,0%,0%);stroke-opacity:1;stroke-miterlimit:10;" d="M 37.617188 102.304688 L 35.25 127.851562 "/>
<path style="fill:none;stroke-width:1.2;stroke-linecap:butt;stroke-linejoin:miter;stroke:rgb(0%,0%,0%);stroke-opacity:1;stroke-miterlimit:10;" d="M 43.390625 105.414062 L 41.5 125.855469 "/>
<path style="fill:none;stroke-width:1.2;stroke-linecap:butt;stroke-linejoin:miter;stroke:rgb(0%,0%,0%);stroke-opacity:1;stroke-miterlimit:10;" d="M 126.960938 173.011719 L 139.789062 172.851562 "/>
<path style="fill:none;stroke-width:1.2;stroke-linecap:butt;stroke-linejoin:miter;stroke:rgb(0%,0%,100%);stroke-opacity:1;stroke-miterlimit:10;" d="M 139.789062 172.851562 L 152.617188 172.695312 "/>
<path style="fill:none;stroke-width:1.2;stroke-linecap:butt;stroke-linejoin:miter;stroke:rgb(0%,0%,100%);stroke-opacity:1;stroke-miterlimit:10;" d="M 152.617188 172.695312 L 159.167969 183.726562 "/>
<path style="fill:none;stroke-width:1.2;stroke-linecap:butt;stroke-linejoin:miter;stroke:rgb(0%,0%,0%);stroke-opacity:1;stroke-miterlimit:10;" d="M 159.167969 183.726562 L 165.722656 194.753906 "/>
<path style="fill:none;stroke-width:1.2;stroke-linecap:butt;stroke-linejoin:miter;stroke:rgb(0%,0%,100%);stroke-opacity:1;stroke-miterlimit:10;" d="M 152.617188 172.695312 L 158.894531 161.503906 "/>
<path style="fill:none;stroke-width:1.2;stroke-linecap:butt;stroke-linejoin:miter;stroke:rgb(0%,0%,0%);stroke-opacity:1;stroke-miterlimit:10;" d="M 158.894531 161.503906 L 165.171875 150.316406 "/>
<path style=" stroke:none;fill-rule:nonzero;fill:rgb(100%,100%,100%);fill-opacity:1;" d="M 148.617188 166.195312 L 156.617188 166.195312 L 156.617188 179.195312 L 148.617188 179.195312 Z M 148.617188 166.195312 "/>
<g style="fill:rgb(0%,0%,100%);fill-opacity:1;">
  <use xlink:href="#glyph0-1" x="148.617188" y="176.09668"/>
</g>
<path style="fill:none;stroke-width:1.2;stroke-linecap:butt;stroke-linejoin:miter;stroke:rgb(0%,0%,0%);stroke-opacity:1;stroke-miterlimit:10;" d="M 167.765625 148.777344 L 161.214844 137.746094 "/>
<path style="fill:none;stroke-width:1.2;stroke-linecap:butt;stroke-linejoin:miter;stroke:rgb(100%,0%,0%);stroke-opacity:1;stroke-miterlimit:10;" d="M 161.214844 137.746094 L 154.664062 126.714844 "/>
<path style="fill:none;stroke-width:1.2;stroke-linecap:butt;stroke-linejoin:miter;stroke:rgb(0%,0%,0%);stroke-opacity:1;stroke-miterlimit:10;" d="M 162.578125 151.859375 L 156.023438 140.828125 "/>
<path style="fill:none;stroke-width:1.2;stroke-linecap:butt;stroke-linejoin:miter;stroke:rgb(100%,0%,0%);stroke-opacity:1;stroke-miterlimit:10;" d="M 156.023438 140.828125 L 149.472656 129.796875 "/>
<path style="fill:none;stroke-width:1.2;stroke-linecap:butt;stroke-linejoin:miter;stroke:rgb(0%,0%,0%);stroke-opacity:1;stroke-miterlimit:10;" d="M 165.171875 150.316406 L 190.828125 150 "/>
<path style=" stroke:none;fill-rule:nonzero;fill:rgb(100%,100%,100%);fill-opacity:1;" d="M 143.070312 121.757812 L 152.070312 121.757812 L 152.070312 134.757812 L 143.070312 134.757812 Z M 143.070312 121.757812 "/>
<g style="fill:rgb(100%,0%,0%);fill-opacity:1;">
  <use xlink:href="#glyph0-2" x="143.070312" y="131.65918"/>
</g>
<path style="fill:none;stroke-width:1.2;stroke-linecap:butt;stroke-linejoin:miter;stroke:rgb(0%,0%,0%);stroke-opacity:1;stroke-miterlimit:10;" d="M 190.828125 150 L 203.929688 172.058594 "/>
<path style="fill:none;stroke-width:1.2;stroke-linecap:butt;stroke-linejoin:miter;stroke:rgb(0%,0%,0%);stroke-opacity:1;stroke-miterlimit:10;" d="M 197.328125 149.125 L 207.8125 166.769531 "/>
<path style="fill:none;stroke-width:1.2;stroke-linecap:butt;stroke-linejoin:miter;stroke:rgb(0%,0%,0%);stroke-opacity:1;stroke-miterlimit:10;" d="M 203.382812 127.621094 L 190.828125 150 "/>
<path style="fill:none;stroke-width:1.2;stroke-linecap:butt;stroke-linejoin:miter;stroke:rgb(0%,0%,0%);stroke-opacity:1;stroke-miterlimit:10;" d="M 203.929688 172.058594 L 229.585938 171.742188 "/>
<path style="fill:none;stroke-width:1.2;stroke-linecap:butt;stroke-linejoin:miter;stroke:rgb(0%,0%,0%);stroke-opacity:1;stroke-miterlimit:10;" d="M 229.585938 171.742188 L 242.140625 149.367188 "/>
<path style="fill:none;stroke-width:1.2;stroke-linecap:butt;stroke-linejoin:miter;stroke:rgb(0%,0%,0%);stroke-opacity:1;stroke-miterlimit:10;" d="M 225.578125 166.550781 L 235.621094 148.648438 "/>
<path style="fill:none;stroke-width:1.2;stroke-linecap:butt;stroke-linejoin:miter;stroke:rgb(0%,0%,0%);stroke-opacity:1;stroke-miterlimit:10;" d="M 229.585938 171.742188 L 242.691406 193.804688 "/>
<path style="fill:none;stroke-width:1.2;stroke-linecap:butt;stroke-linejoin:miter;stroke:rgb(0%,0%,0%);stroke-opacity:1;stroke-miterlimit:10;" d="M 242.140625 149.367188 L 229.039062 127.304688 "/>
<path style="fill:none;stroke-width:1.2;stroke-linecap:butt;stroke-linejoin:miter;stroke:rgb(0%,0%,0%);stroke-opacity:1;stroke-miterlimit:10;" d="M 229.039062 127.304688 L 203.382812 127.621094 "/>
<path style="fill:none;stroke-width:1.2;stroke-linecap:butt;stroke-linejoin:miter;stroke:rgb(0%,0%,0%);stroke-opacity:1;stroke-miterlimit:10;" d="M 226.546875 133.375 L 206.023438 133.628906 "/>
<path style="fill:none;stroke-width:1.2;stroke-linecap:butt;stroke-linejoin:miter;stroke:rgb(0%,0%,0%);stroke-opacity:1;stroke-miterlimit:10;" d="M 229.039062 127.304688 L 241.589844 104.929688 "/>
<path style="fill:none;stroke-width:1.2;stroke-linecap:butt;stroke-linejoin:miter;stroke:rgb(0%,0%,0%);stroke-opacity:1;stroke-miterlimit:10;" d="M 241.589844 104.929688 L 247.867188 93.738281 "/>
<path style="fill:none;stroke-width:1.2;stroke-linecap:butt;stroke-linejoin:miter;stroke:rgb(20%,80%,80%);stroke-opacity:1;stroke-miterlimit:10;" d="M 247.867188 93.738281 L 254.144531 82.550781 "/>
<path style="fill:none;stroke-width:1.2;stroke-linecap:butt;stroke-linejoin:miter;stroke:rgb(0%,0%,0%);stroke-opacity:1;stroke-miterlimit:10;" d="M 241.589844 104.929688 L 252.78125 111.203125 "/>
<path style="fill:none;stroke-width:1.2;stroke-linecap:butt;stroke-linejoin:miter;stroke:rgb(20%,80%,80%);stroke-opacity:1;stroke-miterlimit:10;" d="M 252.78125 111.203125 L 263.96875 117.480469 "/>
<path style="fill:none;stroke-width:1.2;stroke-linecap:butt;stroke-linejoin:miter;stroke:rgb(0%,0%,0%);stroke-opacity:1;stroke-miterlimit:10;" d="M 241.589844 104.929688 L 230.402344 98.652344 "/>
<path style="fill:none;stroke-width:1.2;stroke-linecap:butt;stroke-linejoin:miter;stroke:rgb(20%,80%,80%);stroke-opacity:1;stroke-miterlimit:10;" d="M 230.402344 98.652344 L 219.214844 92.375 "/>
<path style=" stroke:none;fill-rule:nonzero;fill:rgb(100%,100%,100%);fill-opacity:1;" d="M 251.144531 76.050781 L 258.144531 76.050781 L 258.144531 89.050781 L 251.144531 89.050781 Z M 251.144531 76.050781 "/>
<g style="fill:rgb(20%,80%,80%);fill-opacity:1;">
  <use xlink:href="#glyph0-3" x="251.144531" y="85.952148"/>
</g>
<path style=" stroke:none;fill-rule:nonzero;fill:rgb(100%,100%,100%);fill-opacity:1;" d="M 260.96875 110.980469 L 267.96875 110.980469 L 267.96875 123.980469 L 260.96875 123.980469 Z M 260.96875 110.980469 "/>
<g style="fill:rgb(20%,80%,80%);fill-opacity:1;">
  <use xlink:href="#glyph0-3" x="260.96875" y="120.881836"/>
</g>
<path style=" stroke:none;fill-rule:nonzero;fill:rgb(100%,100%,100%);fill-opacity:1;" d="M 212.214844 85.875 L 219.214844 85.875 L 219.214844 98.875 L 212.214844 98.875 Z M 212.214844 85.875 "/>
<g style="fill:rgb(20%,80%,80%);fill-opacity:1;">
  <use xlink:href="#glyph0-3" x="212.214844" y="95.776367"/>
</g>
<path style="fill:none;stroke-width:1.2;stroke-linecap:butt;stroke-linejoin:miter;stroke:rgb(0%,0%,0%);stroke-opacity:1;stroke-miterlimit:10;" d="M 242.691406 193.804688 L 249.242188 204.832031 "/>
<path style="fill:none;stroke-width:1.2;stroke-linecap:butt;stroke-linejoin:miter;stroke:rgb(20%,80%,80%);stroke-opacity:1;stroke-miterlimit:10;" d="M 249.242188 204.832031 L 255.792969 215.863281 "/>
<path style="fill:none;stroke-width:1.2;stroke-linecap:butt;stroke-linejoin:miter;stroke:rgb(0%,0%,0%);stroke-opacity:1;stroke-miterlimit:10;" d="M 242.691406 193.804688 L 231.660156 200.355469 "/>
<path style="fill:none;stroke-width:1.2;stroke-linecap:butt;stroke-linejoin:miter;stroke:rgb(20%,80%,80%);stroke-opacity:1;stroke-miterlimit:10;" d="M 231.660156 200.355469 L 220.628906 206.90625 "/>
<path style="fill:none;stroke-width:1.2;stroke-linecap:butt;stroke-linejoin:miter;stroke:rgb(0%,0%,0%);stroke-opacity:1;stroke-miterlimit:10;" d="M 242.691406 193.804688 L 253.71875 187.253906 "/>
<path style="fill:none;stroke-width:1.2;stroke-linecap:butt;stroke-linejoin:miter;stroke:rgb(20%,80%,80%);stroke-opacity:1;stroke-miterlimit:10;" d="M 253.71875 187.253906 L 264.75 180.699219 "/>
<path style=" stroke:none;fill-rule:nonzero;fill:rgb(100%,100%,100%);fill-opacity:1;" d="M 252.792969 209.363281 L 259.792969 209.363281 L 259.792969 222.363281 L 252.792969 222.363281 Z M 252.792969 209.363281 "/>
<g style="fill:rgb(20%,80%,80%);fill-opacity:1;">
  <use xlink:href="#glyph0-3" x="252.792969" y="219.264648"/>
</g>
<path style=" stroke:none;fill-rule:nonzero;fill:rgb(100%,100%,100%);fill-opacity:1;" d="M 213.628906 200.40625 L 220.628906 200.40625 L 220.628906 213.40625 L 213.628906 213.40625 Z M 213.628906 200.40625 "/>
<g style="fill:rgb(20%,80%,80%);fill-opacity:1;">
  <use xlink:href="#glyph0-3" x="213.628906" y="210.307617"/>
</g>
<path style=" stroke:none;fill-rule:nonzero;fill:rgb(100%,100%,100%);fill-opacity:1;" d="M 261.75 174.199219 L 268.75 174.199219 L 268.75 187.199219 L 261.75 187.199219 Z M 261.75 174.199219 "/>
<g style="fill:rgb(20%,80%,80%);fill-opacity:1;">
  <use xlink:href="#glyph0-3" x="261.75" y="184.100586"/>
</g>
</g>
</svg>

<svg xmlns="http://www.w3.org/2000/svg" xmlns:xlink="http://www.w3.org/1999/xlink" width="300pt" height="300pt" viewBox="0 0 300 300"><defs><symbol overflow="visible"><path d="M.547 1.938V-7.75h5.5v9.688zm.625-.61h4.266v-8.47H1.171zm0 0"/></symbol><symbol overflow="visible" id="a"><path d="M1.078-8.016h1.47l3.546 6.704v-6.704h1.062V0H5.688L2.124-6.703V0H1.078zm0 0"/></symbol><symbol overflow="visible" id="b"><path d="M4.328-7.28c-.78 0-1.406.296-1.875.89-.46.585-.687 1.382-.687 2.39 0 1.012.226 1.813.687 2.406.47.586 1.094.875 1.875.875.79 0 1.414-.288 1.875-.874.457-.593.688-1.394.688-2.406 0-1.008-.23-1.805-.687-2.39-.46-.594-1.086-.89-1.875-.89zm0-.892c1.125 0 2.024.383 2.703 1.14C7.708-6.28 8.048-5.27 8.048-4c0 1.262-.34 2.273-1.016 3.03C6.353-.22 5.454.157 4.33.157S2.3-.22 1.625-.97c-.668-.75-1-1.757-1-3.03 0-1.27.332-2.28 1-3.03.676-.76 1.578-1.142 2.703-1.142zm0 0"/></symbol><symbol overflow="visible" id="c"><path d="M1.078-8.016h4.61v.907H2.171v2.36h3.172v.922H2.172V0H1.078zm0 0"/></symbol></defs><g><path fill="#fff" d="M0 0h300v300H0z"/><path d="M153.168 217.133l-25.656.316M165.723 194.754l-12.555 22.38" stroke-width="1.2" stroke="#000" stroke-miterlimit="10" fill="none"/><path d="M114.41 195.39m1.06 2.805l.897-.53m.16 3.335l1.793-1.063m-.73 3.872l2.687-1.6m-1.63 4.403l3.587-2.13m-2.523 4.94l4.48-2.665m-3.42 5.47l5.378-3.197m-4.316 6.005l6.273-3.73m-5.214 6.535l7.172-4.262m-6.445 6.184l7.785-4.625" stroke="#000" stroke-miterlimit="10" fill="none"/><path d="M114.41 195.39l-14.824 20.942M114.41 195.39l12.55-22.378M99.07 174.82l15.34 20.57M99.586 216.332l-24.5-7.625M75.086 208.707l-.16-12.828" stroke-width="1.2" stroke="#000" stroke-miterlimit="10" fill="none"/><path d="M74.926 195.88l-.156-12.83M74.77 183.05l12.152-4.116" stroke-width="1.2" stroke="#00f" stroke-miterlimit="10" fill="none"/><path d="M86.922 178.934l12.148-4.114" stroke-width="1.2" stroke="#000" stroke-miterlimit="10" fill="none"/><path d="M74.77 183.05l-10.473-7.413" stroke-width="1.2" stroke="#00f" stroke-miterlimit="10" fill="none"/><path d="M64.297 175.637l-10.47-7.41" stroke-width="1.2" stroke="#000" stroke-miterlimit="10" fill="none"/><path d="M70.77 176.55h8v13h-8zm0 0" fill="#fff"/><use xlink:href="#a" x="70.77" y="186.452" fill="#00f"/><path d="M53.828 168.227l2.363-25.55M56.19 142.676l23.31-10.723M56 136.12l18.648-8.58M35.25 127.852l20.94 14.824M79.5 131.953l2.367-25.55M81.867 106.402l-20.94-14.824M76.285 109.848L59.53 97.988M60.926 91.578l-23.31 10.727M37.617 102.305l-2.367 25.547M43.39 105.414l-1.89 20.44M126.96 173.012l12.83-.16" stroke-width="1.2" stroke="#000" stroke-miterlimit="10" fill="none"/><path d="M139.79 172.852l12.827-.157M152.617 172.695l6.55 11.032" stroke-width="1.2" stroke="#00f" stroke-miterlimit="10" fill="none"/><path d="M159.168 183.727l6.555 11.027" stroke-width="1.2" stroke="#000" stroke-miterlimit="10" fill="none"/><path d="M152.617 172.695l6.278-11.19" stroke-width="1.2" stroke="#00f" stroke-miterlimit="10" fill="none"/><path d="M158.895 161.504l6.277-11.188" stroke-width="1.2" stroke="#000" stroke-miterlimit="10" fill="none"/><path d="M148.617 166.195h8v13h-8zm0 0" fill="#fff"/><use xlink:href="#a" x="148.617" y="176.097" fill="#00f"/><path d="M167.766 148.777l-6.55-11.03" stroke-width="1.2" stroke="#000" stroke-miterlimit="10" fill="none"/><path d="M161.215 137.746l-6.55-11.03" stroke-width="1.2" stroke="#f00" stroke-miterlimit="10" fill="none"/><path d="M162.578 151.86l-6.555-11.032" stroke-width="1.2" stroke="#000" stroke-miterlimit="10" fill="none"/><path d="M156.023 140.828l-6.55-11.03" stroke-width="1.2" stroke="#f00" stroke-miterlimit="10" fill="none"/><path d="M165.172 150.316l25.656-.316" stroke-width="1.2" stroke="#000" stroke-miterlimit="10" fill="none"/><path d="M143.07 121.758h9v13h-9zm0 0" fill="#fff"/><use xlink:href="#b" x="143.07" y="131.659" fill="#f00"/><path d="M190.828 150l13.102 22.06M197.328 149.125l10.484 17.645M203.383 127.62L190.828 150M203.93 172.06l25.656-.318M229.586 171.742l12.555-22.375M225.578 166.55l10.043-17.902M229.586 171.742l13.105 22.063M242.14 149.367l-13.1-22.062M229.04 127.305l-25.657.316M226.547 133.375l-20.524.254M229.04 127.305l12.55-22.375M241.59 104.93l6.277-11.192" stroke-width="1.2" stroke="#000" stroke-miterlimit="10" fill="none"/><path d="M247.867 93.738l6.278-11.187" stroke-width="1.2" stroke="#3cc" stroke-miterlimit="10" fill="none"/><path d="M241.59 104.93l11.19 6.273" stroke-width="1.2" stroke="#000" stroke-miterlimit="10" fill="none"/><path d="M252.78 111.203l11.19 6.277" stroke-width="1.2" stroke="#3cc" stroke-miterlimit="10" fill="none"/><path d="M241.59 104.93l-11.188-6.278" stroke-width="1.2" stroke="#000" stroke-miterlimit="10" fill="none"/><path d="M230.402 98.652l-11.187-6.277" stroke-width="1.2" stroke="#3cc" stroke-miterlimit="10" fill="none"/><path d="M251.145 76.05h7v13h-7zm0 0" fill="#fff"/><use xlink:href="#c" x="251.145" y="85.952" fill="#3cc"/><path d="M260.97 110.98h7v13h-7zm0 0" fill="#fff"/><use xlink:href="#c" x="260.969" y="120.882" fill="#3cc"/><path d="M212.215 85.875h7v13h-7zm0 0" fill="#fff"/><use xlink:href="#c" x="212.215" y="95.776" fill="#3cc"/><path d="M242.69 193.805l6.552 11.027" stroke-width="1.2" stroke="#000" stroke-miterlimit="10" fill="none"/><path d="M249.242 204.832l6.55 11.03" stroke-width="1.2" stroke="#3cc" stroke-miterlimit="10" fill="none"/><path d="M242.69 193.805l-11.03 6.55" stroke-width="1.2" stroke="#000" stroke-miterlimit="10" fill="none"/><path d="M231.66 200.355l-11.03 6.55" stroke-width="1.2" stroke="#3cc" stroke-miterlimit="10" fill="none"/><path d="M242.69 193.805l11.03-6.55" stroke-width="1.2" stroke="#000" stroke-miterlimit="10" fill="none"/><path d="M253.72 187.254l11.03-6.555" stroke-width="1.2" stroke="#3cc" stroke-miterlimit="10" fill="none"/><path d="M252.793 209.363h7v13h-7zm0 0" fill="#fff"/><use xlink:href="#c" x="252.793" y="219.265" fill="#3cc"/><path d="M213.63 200.406h7v13h-7zm0 0" fill="#fff"/><use xlink:href="#c" x="213.629" y="210.308" fill="#3cc"/><path d="M261.75 174.2h7v13h-7zm0 0" fill="#fff"/><use xlink:href="#c" x="261.75" y="184.101" fill="#3cc"/></g></svg>
